samples/img/shopping.svg

<svg xmlns="http://www.w3.org/2000/svg" width="48" height="48" viewBox="0 0 24 24"><path d="M12 13a5 5 0 0 1-5-5h2a3 3 0 0 0 3 3 3 3 0 0 0 3-3h2a5 5 0 0 1-5 5m0-10a3 3 0 0 1 3 3H9a3 3 0 0 1 3-3m7 3h-2a5 5 0 0 0-5-5 5 5 0 0 0-5 5H5c-1.11 0-2 .89-2 2v12a2 2 0 0 0 2 2h14a2 2 0 0 0 2-2V8a2 2 0 0 0-2-2Z"/></svg>

<svg xmlns="http://www.w3.org/2000/svg" width="48" height="48" viewBox="0 0 24 24"><path d="M12,13A5,5 0 0,1 7,8H9A3,3 0 0,0 12,11A3,3 0 0,0 15,8H17A5,5 0 0,1 12,13M12,3A3,3 0 0,1 15,6H9A3,3 0 0,1 12,3M19,6H17A5,5 0 0,0 12,1A5,5 0 0,0 7,6H5C3.89,6 3,6.89 3,8V20A2,2 0 0,0 5,22H19A2,2 0 0,0 21,20V8C21,6.89 20.1,6 19,6Z" /></svg>
